instagram.svg

<?xml version="1.0" encoding="UTF-8" standalone="no"?>
<!DOCTYPE svg PUBLIC "-//W3C//DTD SVG 1.1//EN" "http://www.w3.org/Graphics/SVG/1.1/DTD/svg11.dtd">
<!-- Created with Vectornator (http://vectornator.io/) -->
<svg stroke-miterlimit="10" style="fill-rule:nonzero;clip-rule:evenodd;stroke-linecap:round;stroke-linejoin:round;" version="1.1" viewBox="0 0 24 24" xml:space="preserve" xmlns="http://www.w3.org/2000/svg" xmlns:xlink="http://www.w3.org/1999/xlink">
<defs>
<radialGradient cx="332.14" cy="2511.81" gradientTransform="matrix(0.0096 0 0 0.0096 0 0)" gradientUnits="userSpaceOnUse" id="RadialGradient" r="3263.54">
<stop offset="0.09" stop-color="#fa8f21"/>
<stop offset="0.78" stop-color="#d82d7e"/>
</radialGradient>
<radialGradient cx="1516.14" cy="2623.81" gradientTransform="matrix(0.0096 0 0 0.0096 0 0)" gradientUnits="userSpaceOnUse" id="RadialGradient_2" r="2572.12">
<stop offset="0.64" stop-color="#8c3aaa" stop-opacity="0"/>
<stop offset="1" stop-color="#8c3aaa"/>
</radialGradient>
</defs>
<g id="Untitled">
<path d="M8.00064 12C8.00064 9.79094 9.79094 7.99968 12 7.99968C14.2091 7.99968 16.0003 9.79094 16.0003 12C16.0003 14.2091 14.2091 16.0003 12 16.0003C9.79094 16.0003 8.00064 14.2091 8.00064 12M5.83814 12C5.83814 15.4032 8.5968 18.1619 12 18.1619C15.4032 18.1619 18.1619 15.4032 18.1619 12C18.1619 8.5968 15.4032 5.83814 12 5.83814C8.5968 5.83814 5.83814 8.5968 5.83814 12M16.9658 5.59382C16.9655 6.38911 17.6099 7.03408 18.4052 7.0344C19.2005 7.03472 19.8455 6.39027 19.8458 5.59498C19.8461 4.79969 19.2017 4.15472 18.4064 4.1544L18.4058 4.1544C17.6109 4.15477 16.9665 4.79891 16.9658 5.59382M7.152 21.7677C5.98205 21.7144 5.34614 21.5196 4.92355 21.3549C4.3633 21.1368 3.96355 20.877 3.54326 20.4573C3.12298 20.0376 2.86282 19.6382 2.64566 19.078C2.48093 18.6556 2.28605 18.0195 2.23286 16.8495C2.17469 15.5846 2.16307 15.2047 2.16307 12.0001C2.16307 8.79552 2.17565 8.41661 2.23286 7.15066C2.28614 5.9807 2.48246 5.34586 2.64566 4.92221C2.86378 4.36195 3.12355 3.96221 3.54326 3.54192C3.96298 3.12163 4.36234 2.86147 4.92355 2.64432C5.34595 2.47958 5.98205 2.2847 7.152 2.23152C8.4169 2.17334 8.79686 2.16173 12 2.16173C15.2031 2.16173 15.5835 2.1743 16.8494 2.23152C18.0194 2.2848 18.6542 2.48112 19.0779 2.64432C19.6381 2.86147 20.0379 3.12221 20.4582 3.54192C20.8785 3.96163 21.1377 4.36195 21.3558 4.92221C21.5205 5.34461 21.7154 5.9807 21.7686 7.15066C21.8268 8.41661 21.8384 8.79552 21.8384 12.0001C21.8384 15.2047 21.8268 15.5836 21.7686 16.8495C21.7153 18.0195 21.5195 18.6554 21.3558 19.078C21.1377 19.6382 20.8779 20.038 20.4582 20.4573C20.0385 20.8766 19.6381 21.1368 19.0779 21.3549C18.6555 21.5196 18.0194 21.7145 16.8494 21.7677C15.5845 21.8259 15.2046 21.8375 12 21.8375C8.79542 21.8375 8.41651 21.8259 7.152 21.7677M7.05264 0.072672C5.77517 0.130848 4.90224 0.333408 4.1399 0.630048C3.3504 0.936384 2.68205 1.34736 2.01418 2.01418C1.3463 2.68099 0.936384 3.3504 0.630048 4.1399C0.333408 4.90272 0.130848 5.77517 0.072672 7.05264C0.013536 8.33213 0 8.74118 0 12C0 15.2588 0.013536 15.6679 0.072672 16.9474C0.130848 18.2249 0.333408 19.0973 0.630048 19.8601C0.936384 20.6491 1.3464 21.3193 2.01418 21.9858C2.68195 22.6524 3.3504 23.0628 4.1399 23.37C4.90368 23.6666 5.77517 23.8692 7.05264 23.9273C8.3328 23.9855 8.74118 24 12 24C15.2588 24 15.6679 23.9865 16.9474 23.9273C18.2249 23.8692 19.0973 23.6666 19.8601 23.37C20.6491 23.0628 21.318 22.6526 21.9858 21.9858C22.6537 21.319 23.0628 20.6491 23.37 19.8601C23.6666 19.0973 23.8701 18.2248 23.9273 16.9474C23.9855 15.6669 23.999 15.2588 23.999 12C23.999 8.74118 23.9855 8.33213 23.9273 7.05264C23.8692 5.77507 23.6666 4.90224 23.37 4.1399C23.0628 3.35088 22.6526 2.68205 21.9858 2.01418C21.319 1.3463 20.6491 0.936384 19.8611 0.630048C19.0973 0.333408 18.2248 0.129888 16.9483 0.072672C15.6688 0.014496 15.2598 0 12.001 0C8.74214 0 8.3328 0.013536 7.05264 0.072672" fill="url(#RadialGradient)" fill-rule="nonzero" opacity="1" stroke="none"/>
<path d="M8.00064 12C8.00064 9.79094 9.79094 7.99968 12 7.99968C14.2091 7.99968 16.0003 9.79094 16.0003 12C16.0003 14.2091 14.2091 16.0003 12 16.0003C9.79094 16.0003 8.00064 14.2091 8.00064 12M5.83814 12C5.83814 15.4032 8.5968 18.1619 12 18.1619C15.4032 18.1619 18.1619 15.4032 18.1619 12C18.1619 8.5968 15.4032 5.83814 12 5.83814C8.5968 5.83814 5.83814 8.5968 5.83814 12M16.9658 5.59382C16.9655 6.38911 17.6099 7.03408 18.4052 7.0344C19.2005 7.03472 19.8455 6.39027 19.8458 5.59498C19.8461 4.79969 19.2017 4.15472 18.4064 4.1544L18.4058 4.1544C17.6109 4.15477 16.9665 4.79891 16.9658 5.59382M7.152 21.7677C5.98205 21.7144 5.34614 21.5196 4.92355 21.3549C4.3633 21.1368 3.96355 20.877 3.54326 20.4573C3.12298 20.0376 2.86282 19.6382 2.64566 19.078C2.48093 18.6556 2.28605 18.0195 2.23286 16.8495C2.17469 15.5846 2.16307 15.2047 2.16307 12.0001C2.16307 8.79552 2.17565 8.41661 2.23286 7.15066C2.28614 5.9807 2.48246 5.34586 2.64566 4.92221C2.86378 4.36195 3.12355 3.96221 3.54326 3.54192C3.96298 3.12163 4.36234 2.86147 4.92355 2.64432C5.34595 2.47958 5.98205 2.2847 7.152 2.23152C8.4169 2.17334 8.79686 2.16173 12 2.16173C15.2031 2.16173 15.5835 2.1743 16.8494 2.23152C18.0194 2.2848 18.6542 2.48112 19.0779 2.64432C19.6381 2.86147 20.0379 3.12221 20.4582 3.54192C20.8785 3.96163 21.1377 4.36195 21.3558 4.92221C21.5205 5.34461 21.7154 5.9807 21.7686 7.15066C21.8268 8.41661 21.8384 8.79552 21.8384 12.0001C21.8384 15.2047 21.8268 15.5836 21.7686 16.8495C21.7153 18.0195 21.5195 18.6554 21.3558 19.078C21.1377 19.6382 20.8779 20.038 20.4582 20.4573C20.0385 20.8766 19.6381 21.1368 19.0779 21.3549C18.6555 21.5196 18.0194 21.7145 16.8494 21.7677C15.5845 21.8259 15.2046 21.8375 12 21.8375C8.79542 21.8375 8.41651 21.8259 7.152 21.7677M7.05264 0.072672C5.77517 0.130848 4.90224 0.333408 4.1399 0.630048C3.3504 0.936384 2.68205 1.34736 2.01418 2.01418C1.3463 2.68099 0.936384 3.3504 0.630048 4.1399C0.333408 4.90272 0.130848 5.77517 0.072672 7.05264C0.013536 8.33213 0 8.74118 0 12C0 15.2588 0.013536 15.6679 0.072672 16.9474C0.130848 18.2249 0.333408 19.0973 0.630048 19.8601C0.936384 20.6491 1.3464 21.3193 2.01418 21.9858C2.68195 22.6524 3.3504 23.0628 4.1399 23.37C4.90368 23.6666 5.77517 23.8692 7.05264 23.9273C8.3328 23.9855 8.74118 24 12 24C15.2588 24 15.6679 23.9865 16.9474 23.9273C18.2249 23.8692 19.0973 23.6666 19.8601 23.37C20.6491 23.0628 21.318 22.6526 21.9858 21.9858C22.6537 21.319 23.0628 20.6491 23.37 19.8601C23.6666 19.0973 23.8701 18.2248 23.9273 16.9474C23.9855 15.6669 23.999 15.2588 23.999 12C23.999 8.74118 23.9855 8.33213 23.9273 7.05264C23.8692 5.77507 23.6666 4.90224 23.37 4.1399C23.0628 3.35088 22.6526 2.68205 21.9858 2.01418C21.319 1.3463 20.6491 0.936384 19.8611 0.630048C19.0973 0.333408 18.2248 0.129888 16.9483 0.072672C15.6688 0.014496 15.2598 0 12.001 0C8.74214 0 8.3328 0.013536 7.05264 0.072672" fill="url(#RadialGradient_2)" fill-rule="nonzero" opacity="1" stroke="none"/>
</g>
</svg>

<svg stroke-miterlimit="10" style="fill-rule:nonzero;clip-rule:evenodd;stroke-linecap:round;stroke-linejoin:round" viewBox="0 0 24 24" xml:space="preserve" xmlns="http://www.w3.org/2000/svg"><defs><radialGradient cx="332.14" cy="2511.81" gradientTransform="scale(.0096)" gradientUnits="userSpaceOnUse" id="a" r="3263.54"><stop offset=".09" stop-color="#fa8f21"/><stop offset=".78" stop-color="#d82d7e"/></radialGradient><radialGradient cx="1516.14" cy="2623.81" gradientTransform="scale(.0096)" gradientUnits="userSpaceOnUse" id="b" r="2572.12"><stop offset=".64" stop-color="#8c3aaa" stop-opacity="0"/><stop offset="1" stop-color="#8c3aaa"/></radialGradient></defs><path d="M8 12a4 4 0 1 1 8-.001A4 4 0 0 1 8 12m-2.162 0a6.162 6.162 0 1 0 12.324 0 6.162 6.162 0 0 0-12.324 0m11.128-6.406a1.44 1.44 0 1 0 1.44-1.44 1.44 1.44 0 0 0-1.44 1.44M7.152 21.768c-1.17-.054-1.806-.248-2.228-.413a3.73 3.73 0 0 1-1.38-.898c-.421-.42-.681-.819-.898-1.379-.165-.422-.36-1.058-.413-2.229-.058-1.264-.07-1.644-.07-4.849 0-3.204.013-3.583.07-4.85.053-1.17.25-1.804.413-2.228.218-.56.478-.96.897-1.38.42-.42.82-.68 1.38-.898.423-.164 1.059-.36 2.229-.412 1.265-.059 1.645-.07 4.848-.07s3.584.012 4.85.07c1.17.053 1.804.25 2.228.412.56.217.96.478 1.38.898.42.42.68.82.898 1.38.164.423.36 1.059.413 2.229.058 1.266.07 1.645.07 4.85 0 3.204-.012 3.583-.07 4.848-.054 1.17-.25 1.806-.413 2.229-.218.56-.478.96-.898 1.38-.42.419-.82.679-1.38.897-.422.165-1.059.36-2.229.413-1.264.058-1.644.07-4.849.07s-3.583-.012-4.848-.07M7.052.073C5.776.13 4.903.333 4.14.63a5.886 5.886 0 0 0-2.126 1.384A5.863 5.863 0 0 0 .63 4.14c-.297.763-.5 1.635-.557 2.913C.013 8.333 0 8.74 0 12c0 3.259.014 3.668.073 4.947.058 1.278.26 2.15.557 2.913.306.79.716 1.46 1.384 2.126A5.9 5.9 0 0 0 4.14 23.37c.764.297 1.635.5 2.913.557C8.333 23.985 8.74 24 12 24c3.259 0 3.668-.014 4.947-.073 1.278-.058 2.15-.26 2.913-.557a5.901 5.901 0 0 0 2.126-1.384 5.878 5.878 0 0 0 1.384-2.126c.297-.763.5-1.635.557-2.913.058-1.28.072-1.688.072-4.947 0-3.259-.014-3.668-.072-4.947-.058-1.278-.26-2.15-.557-2.913a5.902 5.902 0 0 0-1.384-2.126A5.872 5.872 0 0 0 19.86.63c-.764-.297-1.636-.5-2.913-.557C15.668.014 15.26 0 12.001 0 8.742 0 8.333.014 7.053.073" fill="url(#a)"/><path d="M8 12a4 4 0 1 1 8-.001A4 4 0 0 1 8 12m-2.162 0a6.162 6.162 0 1 0 12.324 0 6.162 6.162 0 0 0-12.324 0m11.128-6.406a1.44 1.44 0 1 0 1.44-1.44 1.44 1.44 0 0 0-1.44 1.44M7.152 21.768c-1.17-.054-1.806-.248-2.228-.413a3.73 3.73 0 0 1-1.38-.898c-.421-.42-.681-.819-.898-1.379-.165-.422-.36-1.058-.413-2.229-.058-1.264-.07-1.644-.07-4.849 0-3.204.013-3.583.07-4.85.053-1.17.25-1.804.413-2.228.218-.56.478-.96.897-1.38.42-.42.82-.68 1.38-.898.423-.164 1.059-.36 2.229-.412 1.265-.059 1.645-.07 4.848-.07s3.584.012 4.85.07c1.17.053 1.804.25 2.228.412.56.217.96.478 1.38.898.42.42.68.82.898 1.38.164.423.36 1.059.413 2.229.058 1.266.07 1.645.07 4.85 0 3.204-.012 3.583-.07 4.848-.054 1.17-.25 1.806-.413 2.229-.218.56-.478.96-.898 1.38-.42.419-.82.679-1.38.897-.422.165-1.059.36-2.229.413-1.264.058-1.644.07-4.849.07s-3.583-.012-4.848-.07M7.052.073C5.776.13 4.903.333 4.14.63a5.886 5.886 0 0 0-2.126 1.384A5.863 5.863 0 0 0 .63 4.14c-.297.763-.5 1.635-.557 2.913C.013 8.333 0 8.74 0 12c0 3.259.014 3.668.073 4.947.058 1.278.26 2.15.557 2.913.306.79.716 1.46 1.384 2.126A5.9 5.9 0 0 0 4.14 23.37c.764.297 1.635.5 2.913.557C8.333 23.985 8.74 24 12 24c3.259 0 3.668-.014 4.947-.073 1.278-.058 2.15-.26 2.913-.557a5.901 5.901 0 0 0 2.126-1.384 5.878 5.878 0 0 0 1.384-2.126c.297-.763.5-1.635.557-2.913.058-1.28.072-1.688.072-4.947 0-3.259-.014-3.668-.072-4.947-.058-1.278-.26-2.15-.557-2.913a5.902 5.902 0 0 0-1.384-2.126A5.872 5.872 0 0 0 19.86.63c-.764-.297-1.636-.5-2.913-.557C15.668.014 15.26 0 12.001 0 8.742 0 8.333.014 7.053.073" fill="url(#b)"/></svg>
